svg/contain_end.svg

<svg xmlns="http://www.w3.org/2000/svg" viewBox="0 0 24 24"><path d="M7 17v-2h2v2zm4 0v-2h2v2zm4 0v-2h2v2zm7-14v18h-6v-2h4V5h-4V3z"/></svg>

<?xml version="1.0" encoding="UTF-8"?><!DOCTYPE svg PUBLIC "-//W3C//DTD SVG 1.1//EN" "http://www.w3.org/Graphics/SVG/1.1/DTD/svg11.dtd"><svg xmlns="http://www.w3.org/2000/svg" xmlns:xlink="http://www.w3.org/1999/xlink" version="1.1" id="mdi-contain-end" width="24" height="24" viewBox="0 0 24 24"><path d="M7,17V15H9V17H7M11,17V15H13V17H11M15,17V15H17V17H15M22,3V21H16V19H20V5H16V3H22Z" /></svg>
